X:1
T:Title
%%score { ( 1 3 ) | 2 }
L:1/8
M:4/4
K:Eb
V:1 treble nm="Grand Piano"
V:3 treble 
V:2 bass 
V:1
 z4 z2[Q:1/4=100] E>F | G2 G2 G>F G>A | [GB]2 [Ge]2 [GB]2 [Gc]>[GB] | %3
 [DA]2 [DA]2 [DA]>[Ac] [GB]>[FA] | G2 B2 F2 [DB]>[FA] | G2 G2 G>F G>A | %6
 [GB]2 [Ge]2 [GB]2 [GB]>[Gc] | [Gd]>[GB] [DG]>[GB] [_G=A]>[Gc] [GB]>A |[M:7/8] G2 G2 [AB]3 | %9
[M:1/4] c>d |[M:4/4] z2 [GB]4 z2 | [DGB]>[DFA] [DFA]>[B,=EG] [B,DA]2 [DAc]>[Ae] | z2 [FA]4 z2 | %13
 [Ac]>[GB] [GB]>[_G=A] [=GB]2 [EB]>[F=B] | [=Ec]2 [GB]2 [FA]>[FA] [F=A]>[FA] | %15
 [FB]>[FB] [Fc]>[Fc] [Fd]2 c>d | e2 B2 A2 G2 |[M:3/4] [DF]4 [B,E]2 |] %18
V:2
 z4 z2 [E,G,]>[E,A,E] | [E,B,E]2 [E,B,E]2 [E,B,E]>[A,B,D] [G,B,E]>[F,B,F] | %2
 [E,E]2 [E,B,]2 [E,E]2 [E,E]>[E,E] | [F,B,]2 [B,,B,]2 [F,B,]>[F,B,] [B,,B,]>[B,,B,] | %4
 [E,B,E]2 [G,B,E]2 [B,D]2 [B,,B,]>[B,,B,] | [E,B,E]2 [E,B,E]2 [E,B,E]>[A,B,D] [G,B,E]>[F,B,F] | %6
 [E,E]2 [E,B,]2 [E,E]2 [E,B,]>[E,B,] | [D,B,]>[D,D] [D,B,]>[D,D] [D,D]>[D,D] [D,D]>[D,CD] | %8
[M:7/8] [G,B,D]2 [G,B,D]2 [F,D]3 |[M:1/4][K:treble] [B,A]>[B,A] | %10
[M:4/4][K:bass] [E,B,]2 [E,E]>E, E,>E, E,>E, | F,>F, B,,>B,, F,2 B,>B, | %12
 [B,,B,]2 B,,>B,, B,,>B,, B,,>B,, | [E,E]>[E,E] [E,E]>[E,E] [E,E]2 [E,G,]>[D,G,] | %14
 [C,G,]2 [=E,C]2 [F,C]>[F,C] [_E,C]>[E,C] | %15
 [D,B,]>[D,B,] [C,=A,]>[C,A,] [B,,B,]2[K:treble] [_A,B,F]>[A,B,F] | %16
 [G,B,E]2 [G,B,E]2 [F,B,D]2 [E,B,E]2 |[M:3/4] [B,,A,]4 [E,G,]2 |] %18
V:3
 x8 | x8 | x8 | x8 | x8 | x8 | x8 | x8 |[M:7/8] x7 |[M:1/4] x2 | %10
[M:4/4] [Ge]2 z z/ E/ E>E [EGc]>[EGB] | x8 | [Ad]2 D>D D>D [DAc]>[DAd] | x8 | x8 | x8 | x8 | %17
[M:3/4] x6 |] %18

